NotoEmoji/1f1e8-1f1fa.svg

<svg xmlns="http://www.w3.org/2000/svg" viewBox="0 0 36 36"><path fill="#002A8F" d="M32 5H4C1.791 5 0 6.791 0 9v18c0 2.209 1.791 4 4 4h28c2.209 0 4-1.791 4-4V9c0-2.209-1.791-4-4-4z"/><path fill="#FFF" d="M13.846 15H36v-5H6.923zM6.923 26H36v-5H13.846z"/><path fill="#CF142B" d="M13.846 15l-6.923-5-5.541-4.002C.542 6.731 0 7.797 0 9v18c0 1.203.542 2.269 1.382 3.002L6.923 26l6.923-5L18 18l-4.154-3z"/><path fill="#FFF" d="M7.495 18.602L9.5 17.149H7.022l-.769-2.362-.772 2.362H3l2.006 1.454-.771 2.36 2.015-1.459 2.015 1.459z"/></svg>

<svg viewBox="0 0 36 36" xmlns="http://www.w3.org/2000/svg"><path d="m32 5h-28c-2.21 0-4 1.79-4 4v18c0 2.21 1.79 4 4 4h28c2.21 0 4-1.79 4-4v-18c0-2.21-1.79-4-4-4z" fill="#002a8f"/><path d="m13.85 15h22.15v-5h-29.08zm-6.93 11h29.08v-5h-22.15z" fill="#fff"/><path d="m13.85 15-6.92-5-5.54-4c-.85.73-1.39 1.8-1.39 3v18c0 1.2.54 2.27 1.38 3l5.54-4 6.92-5 4.16-3z" fill="#cf142b"/><path d="m7.5 18.6 2-1.45h-2.48l-.77-2.36-.77 2.36h-2.48l2.01 1.45-.77 2.36 2.02-1.46 2.02 1.46z" fill="#fff"/></svg>
